lib/brands/icons/react.svg

<svg xmlns="http://www.w3.org/2000/svg" fill="none" aria-hidden="true" viewBox="0 0 48 48"><g id="react-Icon"><g id="Group"><path id="Vector" fill="#00D8FF" d="M35.5992 18.3666C35.2258 18.238 34.8388 18.1164 34.4403 18.0014C34.5058 17.7341 34.5659 17.4703 34.6194 17.2109C35.4966 12.9527 34.9231 9.52217 32.9645 8.39271C31.0864 7.3097 28.015 8.43891 24.9131 11.1385C24.6148 11.398 24.3157 11.6729 24.0167 11.9609C23.8174 11.7703 23.6185 11.5862 23.4201 11.41C20.1692 8.52349 16.9106 7.30707 14.954 8.43981C13.0777 9.52595 12.5221 12.7509 13.3117 16.7865C13.388 17.1763 13.4771 17.5744 13.5779 17.9791C13.1167 18.11 12.6715 18.2496 12.2455 18.3981C8.43412 19.7269 6 21.8095 6 23.9697C6 26.2007 8.61303 28.4385 12.5829 29.7954C12.8962 29.9025 13.2212 30.0037 13.5563 30.0998C13.4475 30.5376 13.3529 30.9665 13.2735 31.3849C12.5206 35.3504 13.1086 38.4993 14.9798 39.5785C16.9127 40.6931 20.1565 39.5475 23.3152 36.7864C23.5648 36.5682 23.8154 36.3367 24.0664 36.0941C24.3917 36.4074 24.7165 36.7039 25.0396 36.982C28.0992 39.6148 31.121 40.678 32.9905 39.5957C34.9214 38.4778 35.5489 35.0953 34.7342 30.9798C34.672 30.6655 34.5996 30.3444 34.5183 30.0176C34.7461 29.9503 34.9697 29.8807 35.1878 29.8085C39.3148 28.4411 42 26.2305 42 23.9697C42 21.8017 39.4874 19.705 35.5992 18.3666ZM34.7041 28.3487C34.5072 28.4138 34.3053 28.4768 34.0994 28.5379C33.6438 27.0955 33.0289 25.5618 32.2764 23.9772C32.9945 22.4303 33.5857 20.9162 34.0285 19.4831C34.3968 19.5897 34.7542 19.7021 35.0986 19.8207C38.43 20.9675 40.4621 22.6632 40.4621 23.9697C40.4621 25.3613 38.2675 27.1679 34.7041 28.3487ZM33.2255 31.2785C33.5858 33.0983 33.6372 34.7436 33.3986 36.0298C33.1842 37.1856 32.753 37.9561 32.2199 38.2647C31.0853 38.9214 28.6592 38.0678 26.0426 35.8162C25.7426 35.5581 25.4405 35.2825 25.1374 34.9908C26.1518 33.8814 27.1656 32.5916 28.155 31.1593C29.8954 31.0048 31.5396 30.7524 33.0307 30.4077C33.1041 30.7039 33.1693 30.9945 33.2255 31.2785ZM18.2732 38.1512C17.1648 38.5427 16.2819 38.5539 15.7483 38.2462C14.6127 37.5912 14.1407 35.0631 14.7846 31.6717C14.8584 31.2833 14.9461 30.8844 15.0473 30.4766C16.522 30.8027 18.1542 31.0373 19.8987 31.1787C20.8948 32.5804 21.9379 33.8687 22.9891 34.9967C22.7594 35.2184 22.5307 35.4295 22.3032 35.6284C20.9064 36.8493 19.5067 37.7156 18.2732 38.1512ZM13.0803 28.3401C11.3249 27.7402 9.87521 26.9604 8.88153 26.1095C7.98864 25.3448 7.53784 24.5857 7.53784 23.9697C7.53784 22.6588 9.49221 20.9868 12.7517 19.8503C13.1472 19.7124 13.5613 19.5825 13.9909 19.4604C14.4414 20.9258 15.0323 22.4578 15.7455 24.0071C15.0231 25.5793 14.4238 27.1358 13.9689 28.6184C13.6626 28.5303 13.3658 28.4377 13.0803 28.3401ZM14.821 16.4912C14.1444 13.0336 14.5938 10.4253 15.7245 9.7708C16.9288 9.07355 19.592 10.0677 22.399 12.5601C22.5784 12.7194 22.7585 12.8861 22.9392 13.0586C21.8932 14.1817 20.8597 15.4604 19.8724 16.8537C18.1793 17.0106 16.5586 17.2627 15.0685 17.6003C14.9748 17.2234 14.8918 16.8532 14.821 16.4912ZM30.3498 20.3257C29.9935 19.7104 29.6278 19.1096 29.255 18.5253C30.4037 18.6705 31.5042 18.8632 32.5376 19.0991C32.2274 20.0935 31.8406 21.1332 31.3854 22.199C31.0589 21.5791 30.7135 20.954 30.3498 20.3257ZM24.0172 14.1577C24.7265 14.9262 25.4369 15.7842 26.1356 16.7152C25.4315 16.6819 24.7187 16.6646 24 16.6646C23.2881 16.6646 22.5805 16.6815 21.8808 16.7142C22.5802 15.7919 23.2967 14.935 24.0172 14.1577ZM17.644 20.3363C17.2882 20.9533 16.9492 21.575 16.6278 22.1979C16.1799 21.1358 15.7968 20.0913 15.4838 19.0828C16.511 18.853 17.6063 18.665 18.7476 18.5226C18.3695 19.1123 18.0008 19.7175 17.644 20.3362V20.3363ZM18.7805 29.5265C17.6013 29.3949 16.4895 29.2166 15.4626 28.9931C15.7806 27.9666 16.1722 26.8999 16.6295 25.8149C16.9518 26.4373 17.2921 27.0593 17.6501 27.6776H17.6502C18.0148 28.3076 18.3927 28.9247 18.7805 29.5265ZM24.0597 33.8901C23.3308 33.1036 22.6038 32.2337 21.8937 31.2979C22.583 31.325 23.2858 31.3388 24 31.3388C24.7338 31.3388 25.4592 31.3223 26.1731 31.2905C25.4721 32.2431 24.7643 33.1144 24.0597 33.8901ZM31.4001 25.7596C31.8813 26.8563 32.2869 27.9175 32.609 28.9265C31.5652 29.1646 30.4382 29.3564 29.2508 29.4989C29.6245 28.9067 29.9934 28.2956 30.3559 27.6671C30.7226 27.0311 31.0709 26.3942 31.4001 25.7596ZM29.0238 26.8987C28.461 27.8745 27.8833 28.8059 27.2968 29.6852C26.2285 29.7616 25.1249 29.8009 24 29.8009C22.8797 29.8009 21.79 29.7661 20.7406 29.698C20.1304 28.8072 19.5401 27.873 18.981 26.9071H18.9811C18.4234 25.9439 17.9101 24.9725 17.4451 24.0066C17.91 23.0384 18.4219 22.0659 18.9764 21.1044L18.9763 21.1046C19.5322 20.1405 20.1174 19.2109 20.7219 18.3257C21.7925 18.2447 22.8904 18.2025 23.9999 18.2025H24C25.1145 18.2025 26.2138 18.2451 27.2841 18.3267C27.8794 19.2054 28.4606 20.1321 29.0187 21.0963C29.5832 22.0713 30.1017 23.0373 30.5707 23.9847C30.1031 24.9484 29.5857 25.9242 29.0238 26.8987ZM32.1963 9.72505C33.4018 10.4202 33.8706 13.224 33.1132 16.9005C33.0649 17.1351 33.0105 17.3741 32.9514 17.6162C31.4578 17.2716 29.836 17.0152 28.1379 16.8559C27.1487 15.4472 26.1237 14.1666 25.0947 13.0579C25.3714 12.7918 25.6476 12.538 25.9227 12.2985C28.5805 9.9856 31.0645 9.0724 32.1963 9.72505ZM24 20.755C25.7754 20.755 27.2147 22.1942 27.2147 23.9697C27.2147 25.7451 25.7754 27.1843 24 27.1843C22.2246 27.1843 20.7853 25.7451 20.7853 23.9697C20.7853 22.1942 22.2246 20.755 24 20.755Z"/></g></g></svg>

<svg xmlns="http://www.w3.org/2000/svg" fill="none" aria-hidden="true" viewBox="0 0 48 48"><path fill="#00D8FF" d="M35.6 18.367A23.99 23.99 0 0 0 34.44 18c.066-.267.126-.53.18-.79.877-4.258.303-7.689-1.655-8.818-1.879-1.083-4.95.046-8.052 2.745-.298.26-.597.535-.896.823-.2-.19-.398-.375-.597-.551-3.25-2.887-6.51-4.103-8.466-2.97-1.876 1.086-2.432 4.31-1.642 8.347.076.39.165.787.266 1.192-.461.131-.906.27-1.332.42C8.434 19.726 6 21.808 6 23.968c0 2.232 2.613 4.47 6.583 5.826.313.107.638.209.973.305-.108.438-.203.866-.282 1.285-.753 3.965-.165 7.114 1.706 8.193 1.933 1.115 5.177-.03 8.335-2.792.25-.218.5-.45.751-.692.326.313.65.61.974.888 3.06 2.633 6.081 3.696 7.95 2.614 1.931-1.118 2.559-4.5 1.744-8.616a20.387 20.387 0 0 0-.216-.962c.228-.068.452-.137.67-.21C39.315 28.441 42 26.23 42 23.97c0-2.168-2.513-4.265-6.4-5.603Zm-.896 9.982c-.197.065-.399.128-.605.189-.455-1.442-1.07-2.976-1.823-4.56a36.05 36.05 0 0 0 1.752-4.495c.369.107.726.22 1.07.338 3.332 1.146 5.364 2.842 5.364 4.149 0 1.391-2.195 3.198-5.758 4.379Zm-1.479 2.93c.36 1.82.412 3.465.174 4.75-.215 1.157-.646 1.927-1.18 2.236-1.134.656-3.56-.197-6.176-2.449-.3-.258-.602-.534-.906-.825 1.015-1.11 2.029-2.4 3.018-3.832a35.905 35.905 0 0 0 4.876-.751c.073.296.138.586.194.87ZM18.273 38.15c-1.108.392-1.991.403-2.525.095-1.135-.655-1.607-3.183-.963-6.574.073-.389.161-.788.262-1.195 1.475.326 3.107.56 4.852.702a37.415 37.415 0 0 0 3.09 3.818c-.23.221-.458.432-.686.631-1.397 1.221-2.796 2.088-4.03 2.523Zm-5.193-9.81c-1.755-.6-3.205-1.38-4.198-2.232-.893-.764-1.344-1.523-1.344-2.14 0-1.31 1.954-2.982 5.214-4.119.395-.138.81-.268 1.239-.39a36.859 36.859 0 0 0 1.755 4.547 37.456 37.456 0 0 0-1.777 4.611c-.306-.088-.603-.18-.889-.278Zm1.741-11.85c-.677-3.457-.227-6.066.904-6.72 1.204-.697 3.867.297 6.674 2.79.18.158.36.325.54.498a36.843 36.843 0 0 0-3.067 3.795 37.576 37.576 0 0 0-4.803.746 22.53 22.53 0 0 1-.248-1.109Zm15.529 3.835a49.003 49.003 0 0 0-1.095-1.8c1.149.145 2.25.337 3.283.573a32.83 32.83 0 0 1-1.153 3.1 53.603 53.603 0 0 0-1.035-1.873Zm-6.333-6.168c.71.768 1.42 1.626 2.119 2.557a45.227 45.227 0 0 0-4.255 0c.7-.923 1.416-1.78 2.136-2.557Zm-6.373 6.178a45.413 45.413 0 0 0-1.016 1.862 33.945 33.945 0 0 1-1.144-3.115 34.67 34.67 0 0 1 3.264-.56 45.16 45.16 0 0 0-1.104 1.813Zm1.137 9.19a32.75 32.75 0 0 1-3.318-.533 34.69 34.69 0 0 1 1.167-3.178 45.374 45.374 0 0 0 2.151 3.712Zm5.279 4.364a34.532 34.532 0 0 1-2.166-2.592 53.84 53.84 0 0 0 4.279-.007 32.701 32.701 0 0 1-2.113 2.6Zm7.34-8.13a32.627 32.627 0 0 1 1.209 3.166c-1.044.239-2.17.43-3.358.573a53.83 53.83 0 0 0 1.105-1.832c.367-.636.715-1.273 1.044-1.907Zm-2.376 1.139a50.47 50.47 0 0 1-1.727 2.786A46.312 46.312 0 0 1 24 29.8c-1.12 0-2.21-.035-3.26-.103a43.177 43.177 0 0 1-3.296-5.691 43.198 43.198 0 0 1 3.277-5.68 43.278 43.278 0 0 1 6.562.001 46.294 46.294 0 0 1 1.736 2.768 50.434 50.434 0 0 1 1.552 2.889c-.468.963-.985 1.94-1.547 2.914Zm3.172-17.174c1.206.695 1.675 3.499.917 7.176a20.21 20.21 0 0 1-.162.715 36.843 36.843 0 0 0-4.813-.76 36.113 36.113 0 0 0-3.043-3.798c.276-.266.553-.52.828-.76 2.658-2.312 5.142-3.226 6.273-2.573ZM24 20.755a3.215 3.215 0 1 1 0 6.43 3.215 3.215 0 0 1 0-6.43Z"/></svg>
